X:939
T:Sarah MacArthur's
C:anon.
O:Scotland
B:Dunlay &amp; Greenberg, Traditional Celtic Violin Music of Cape Breton
N:p.132, version as played by Mary MacDonald
R:Strathspey
%http://www.musicaviva.com/sarah-macarthurs
%Posted 22 May 1999 at ABC-users by Jack Campin as an example of
%scordatura notation
M:4/4
L:1/8
Q:1/4=192 % god that's fast!
K:AMix scordatura [A,2E2A2e2
% the usual Cape Breton "high bass" tuning
F|  E<AA>F         E<AA>G     |    F>D - (3DDF  G>EF>D      |
    E<AA>G         F>GA>e     |({f}g>)fe>d      c<AB       :|
F|:[EA,]>a - (3aag f>(g (3a)af|({f}g>)fe>d      c<AB>F      |
[1 [EA,]>a - (3aag f>(g (3a)af|({f}g>)fe>d      c<A({B}A>)F:|
[2  E<AA>F         E<AA>e     |({f}g>)fe>d ({cd}c>)BA      |]
% as written in the book...
E|D<GG>E D<GG>F|E>C - (3CCE F>DE>C|D<GG>F E>FA>e|({f}g>)fe>d c<AB:|
E|[DG,]>a - (3aag f>(g (3a)af|({f}g>)fe>d c<AB>E     |
  [DG,]>a - (3aag f>(g (3a)af|({f}g>)fe>d c<A({B}A>)E|
  [DG,]>a - (3aag f>(g (3a)af|({f}g>)fe>d c<AB>E     |
  D<GG>E          D<GG>e     |({f}g>)fe>d ({cd}c>)BA|]
W:
W:
W:  From Musica Viva - http://www.musicaviva.com
W:  the Internet center for free sheet music downloads.

